X:462
T:Twisted Reel
C:by Kamp Kaufman Students
N:Arranged by Dr. Mikey and Skip Staples Transcribed by Jeff Hoelter 
R:bluegrass
L:1/8
Q:1/4=220
M:4/4
K:G
z6 ef |: ge dB AG ED | {A}B2 {A}B2 AG E2 | "C"DE Gc4z | "D"DE Fd3 (3efg | "G"ge dB AG ED | 
{A}B2 {A}B2 AG E2 | "C"DE Gc "D"DE Fd |1 g2 [gB][gB] [g4B4] :|2 g2 [gB][gB] [g2B2] gf | 
"Em"e2 de e2 gf | "C"ed cA GE G2 | "D"[d4F4] [f4d4] | "G"fg fe dA Bd | "Em"e2 EF GB de | 
"C"g2 GA c2 GB | "D"d^c de fg ag | fe dB AF D2 | D^C DE FE FA | d6 (3efg | z8 | 


